X: 40745
T: Toss The Salad
R: reel
M: 4/4
K: Bminor
|:Beef edBc|(3ddd de dBAF|Beef edBc|dBAF FE (3EEE|
Beef edBc|d2 de defg|(3agf (3gfe fdec|dBAF FE (3EEE:|
eB (3BBB gBfB|bafb afed|cA (3AAA eAfA|ceef ecBA|
(3BBB Bc d2 de|fef^g (3aaa fa|bf (3fff gfed|1 (3cBA Bc (3BBB B2:|2 (3cBA Bc (3BBB dc||

